X: 1
T:Paddy Fahy's Reel
R:reel
Z:id:hn-reel-720
M:C|
K:F
fedg fdcA|F2AF cFAd|fedg fdcA|FGAc dG~G2|
fedg fdcA|F2AF cFA2|agfa g2fd|c2Ac dG~G2:|
|:B2Gd (3BAG EG|FcAF cF (3Acd|B2Gd (3BAG EG|FdcA dG~G2|
B2Gd (3BAG EG|FcAF cFA2|agfa g2 (3fed|c2Ac dG~G2:|
